X:325
T:8-time Waltz
A:Bavaria
L:1/8
M:8/8
O:Germany
Q:1/8=280
R:Waltz(8-time)
Z:Richard Robinson 
%%TUNEURL: http://www.leeds.ac.uk/music/Info/RRTuneBk/gettune/000006a7.html
%%ID:000006a7
K:G
dBB Bc/B/A BG| dBB Bc/B/A G2|\
dBB Bc/B/A BG| dBB Bc/B/A G2||
FF/G/A G/A/BB A/B/c| FF/G/A G/A/BB AG|\
FF/G/A G/A/BB A/B/c| FF/G/A G/A/BB AG|]
